components/ui-node-icon/src/snowflakeOutput/snowflakeOutput.medium.svg

<svg width="24" height="24" viewBox="0 0 24 24" fill="none" xmlns="http://www.w3.org/2000/svg">
  <path fill-rule="evenodd" clip-rule="evenodd" d="M9.01502 9.21782L4.78274 6.78073C4.18817 6.43745 3.98277 5.679 4.3269 5.08591C4.67103 4.49281 5.43137 4.28972 6.02594 4.63299L8.42946 6.01689V3.23652C8.42946 2.55356 8.98439 2 9.66905 2C10.3519 2 10.9068 2.55356 10.9068 3.23652V8.12149C10.9068 8.48094 10.7537 8.80445 10.5069 9.0309C10.1177 9.41013 9.5087 9.50359 9.01502 9.21782ZM8.66196 12.0161C8.66917 11.5758 8.43674 11.166 8.05477 10.9449L3.82249 8.50786C3.63871 8.40182 3.42791 8.3461 3.21711 8.3461C2.78289 8.3461 2.3793 8.57795 2.16309 8.95178C1.82797 9.5305 2.02796 10.2728 2.60812 10.6071L5.04767 12.0107L2.60812 13.4162C2.32705 13.5779 2.12525 13.8385 2.04238 14.1513C1.95769 14.464 2.00094 14.7911 2.16309 15.0715C2.3793 15.4453 2.78289 15.6772 3.21531 15.6772C3.42791 15.6772 3.63871 15.6214 3.82249 15.5154L8.05477 13.0783C8.43314 12.859 8.66556 12.4529 8.66196 12.0161ZM15.5734 20.6412V20.7652C15.5734 21.4464 15.0185 22 14.3356 22C13.6509 22 13.096 21.4464 13.096 20.7652V15.9989C13.0708 15.7491 13.123 15.4921 13.2564 15.2584C13.5309 14.7853 14.0703 14.5603 14.5791 14.6621C14.9021 14.0525 15.3475 13.5178 15.8825 13.0906C15.4927 12.8583 15.2763 12.4424 15.2799 12.0161C15.2727 11.5812 15.4961 11.1534 15.9015 10.9198L20.1337 8.48271C20.7283 8.13943 21.4905 8.34252 21.8328 8.93742C22.1769 9.53051 21.9733 10.289 21.3769 10.6304L18.9993 12C18.9995 12 18.9998 12 19 12C21.7614 12 24 14.2386 24 17C24 19.7614 21.7614 22 19 22C17.6739 22 16.4683 21.4837 15.5734 20.6412ZM14.2996 12.2139C14.2996 12.3073 14.2456 12.4367 14.1789 12.505L12.5015 14.1783C12.4348 14.2448 12.3033 14.2987 12.2096 14.2987H11.7826C11.6889 14.2987 11.5574 14.2448 11.4907 14.1783L9.81148 12.505C9.74481 12.4367 9.69076 12.3073 9.69076 12.2139V11.7879C9.69076 11.6927 9.74481 11.5633 9.81148 11.4968L11.4907 9.82172C11.5574 9.75522 11.6889 9.70131 11.7826 9.70131H12.2096C12.3033 9.70131 12.4348 9.75522 12.5015 9.82172L14.1789 11.4968C14.2456 11.5633 14.2996 11.6927 14.2996 11.7879V12.2139ZM12.8024 12.009V11.991C12.8024 11.9227 12.7627 11.8275 12.7141 11.7771L12.2186 11.2847C12.17 11.2344 12.0745 11.1948 12.0042 11.1948H11.9862C11.9177 11.1948 11.8222 11.2344 11.7718 11.2847L11.2781 11.7771C11.2294 11.8257 11.1898 11.9209 11.1898 11.991V12.009C11.1898 12.0791 11.2294 12.1743 11.2781 12.2229L11.7718 12.7171C11.8222 12.7656 11.9177 12.8052 11.9862 12.8052H12.0042C12.0745 12.8052 12.17 12.7656 12.2186 12.7171L12.7141 12.2229C12.7627 12.1743 12.8024 12.0791 12.8024 12.009ZM19.1876 6.78073L14.9554 9.21782C14.3608 9.5611 13.6004 9.35801 13.2563 8.76491C13.1212 8.53126 13.0725 8.27246 13.096 8.02444V3.23652C13.096 2.55356 13.6509 2 14.3356 2C15.0184 2 15.5733 2.55356 15.5733 3.23652V5.99892L17.9444 4.63299C18.539 4.28972 19.2993 4.49281 19.6435 5.08591C19.9876 5.679 19.7822 6.43925 19.1876 6.78073ZM9.86364 14.6599C9.58257 14.606 9.28168 14.6509 9.01502 14.8037L4.78274 17.2425C4.18817 17.584 3.98277 18.3425 4.3269 18.9356C4.67103 19.5305 5.43137 19.7336 6.02594 19.3903L8.42946 18.0064V20.7652C8.42946 21.4464 8.98439 21.9999 9.66905 21.9999C10.3519 21.9999 10.9068 21.4464 10.9068 20.7652V15.8802C10.9068 15.2638 10.4546 14.7533 9.86364 14.6599ZM19 21C21.2091 21 23 19.2091 23 17C23 14.7909 21.2091 13 19 13C16.7909 13 15 14.7909 15 17C15 19.2091 16.7909 21 19 21ZM19 14.5C19.2761 14.5 19.5 14.7239 19.5 15V17.7929L20.6464 16.6464C20.8417 16.4512 21.1583 16.4512 21.3536 16.6464C21.5488 16.8417 21.5488 17.1583 21.3536 17.3536L19.3536 19.3536C19.1583 19.5488 18.8417 19.5488 18.6464 19.3536L16.6464 17.3536C16.4512 17.1583 16.4512 16.8417 16.6464 16.6464C16.8417 16.4512 17.1583 16.4512 17.3536 16.6464L18.5 17.7929V15C18.5 14.7239 18.7239 14.5 19 14.5Z" fill="var(--tbl--colors--brand--snowflake)"/>
</svg>

<svg xmlns="http://www.w3.org/2000/svg" width="24" height="24" fill="none" viewBox="0 0 24 24">
  <path fill="var(--tbl--colors--brand--snowflake)" fill-rule="evenodd" d="M9.015 9.218 4.783 6.78a1.24 1.24 0 0 1-.456-1.695 1.245 1.245 0 0 1 1.699-.453l2.403 1.384v-2.78a1.238 1.238 0 0 1 2.478 0V8.12c0 .36-.153.683-.4.91-.39.38-.998.473-1.492.187Zm-.353 2.798c.007-.44-.225-.85-.607-1.071L3.822 8.508a1.217 1.217 0 0 0-1.659.444 1.211 1.211 0 0 0 .445 1.655l2.44 1.404-2.44 1.405a1.198 1.198 0 0 0-.566.735 1.2 1.2 0 0 0 .121.92 1.219 1.219 0 0 0 1.66.444l4.232-2.437c.378-.219.61-.625.607-1.062Zm6.911 8.625v.124a1.238 1.238 0 0 1-2.477 0V16c-.025-.25.027-.507.16-.74a1.247 1.247 0 0 1 1.323-.597 5.022 5.022 0 0 1 1.303-1.571 1.237 1.237 0 0 1-.602-1.075 1.241 1.241 0 0 1 .622-1.096l4.232-2.437a1.244 1.244 0 0 1 1.699.454c.344.594.14 1.352-.456 1.693L18.999 12H19a5 5 0 1 1-3.427 8.641ZM14.3 12.214a.478.478 0 0 1-.121.291L12.5 14.178a.477.477 0 0 1-.291.12h-.427a.477.477 0 0 1-.292-.12l-1.68-1.673a.478.478 0 0 1-.12-.291v-.426a.47.47 0 0 1 .12-.291l1.68-1.675a.477.477 0 0 1 .292-.12h.427c.093 0 .225.053.291.12l1.678 1.675a.47.47 0 0 1 .12.29v.427Zm-1.498-.205v-.018a.355.355 0 0 0-.088-.214l-.495-.492a.34.34 0 0 0-.215-.09h-.018a.347.347 0 0 0-.214.09l-.494.492a.345.345 0 0 0-.088.214v.018c0 .07.04.165.088.214l.494.494c.05.049.146.088.214.088h.018c.07 0 .166-.04.215-.088l.495-.494a.346.346 0 0 0 .088-.214Zm6.386-5.228-4.233 2.437a1.24 1.24 0 0 1-1.86-1.193V3.236a1.238 1.238 0 0 1 2.478 0v2.762l2.371-1.366a1.245 1.245 0 0 1 1.7.453 1.239 1.239 0 0 1-.456 1.695ZM9.864 14.66a1.236 1.236 0 0 0-.849.144l-4.232 2.438c-.595.342-.8 1.1-.456 1.694a1.244 1.244 0 0 0 1.699.454l2.403-1.384v2.76c0 .68.555 1.234 1.24 1.234.683 0 1.238-.554 1.238-1.235V15.88c0-.616-.452-1.127-1.043-1.22ZM19 21a4 4 0 1 0 0-8 4 4 0 0 0 0 8Zm0-6.5a.5.5 0 0 1 .5.5v2.793l1.146-1.147a.5.5 0 0 1 .708.708l-2 2a.5.5 0 0 1-.708 0l-2-2a.5.5 0 0 1 .708-.708l1.146 1.147V15a.5.5 0 0 1 .5-.5Z" clip-rule="evenodd"/>
</svg>
